X:1
T:Je ne puis bonnement
T:Pierre Sandrin
T:Source : Livre X de 28 chansons nouvelles à 4 parties---Paris---P.Attaingnant---1541. Editor : André Vierendeels (15/05/18) Notes : Original clefs : C1, C3, C4, F4 Original note values have been quartered in 3-beat measures Original note values have been halved Editorial accidentals above the staff Dotted brackets indicate black notes m  33 in T 2 : "G" notated as "F" in original print
T:Je ne puis bonnement
T:©
T:©
T:©
C:Pierre Sandrin
Z:©
%%score [ 1 [ 2 3 ] 4 ]
L:1/8
Q:1/4=120
M:3/4
K:F
V:1 treble nm="Soprano" snm="S"
V:2 treble-8 nm="Tenor 1" snm="T 1"
V:3 treble-8 nm="Tenor 2" snm="T 2"
V:4 bass nm="Bass" snm="B"
V:1
 B2 B2 A2 | G4 B2 | A4 G2 | F4 z2 | F2 F2 F2 | E3 D E2 |"^#" G4 F2 |1 G4 z2 ::2[M:2/2] G4 z2 A2 || %9
w: Je ne puis|bon- ne-|ment pen-|ser|d'où me vient|dou- leur si|soub- dai-|ne?|ne, et|
w: Si ce nest|que ie|voy pas-|ser|mon bien en|re- gi- on|loing- tai-|||
 G2 A2 F2 E2 | FEFG A2 B2- | BA A4 G2 | A4 z2 F2 | E4 D2 D2 | DEFG A2 GF | GA B4 AG | F4 z2 G2 | %17
w: l'heu- re qui est|in _ _ _ _ cer-|* * tai- *|ne, du|re- veoir dont|tant _ _ _ _ me _|_ _ des- * *|plaist, et|
w: ||||||||
 G2 F2 G4 | F2 F2 A2 G2 | F4 E4 | G2 GG F2 GA | Bc d4 D2 | DEFG A2 B2- | BA G4 F2 | G4 z2 G2 | %25
w: tel- le pei-|ne au cueur m'a-|mey- ne,|que rien tant soit beau _|_ _ _ ne|me _ _ _ _ _|_ _ _ _|plaist, et|
w: ||||||||
 G2 F2 G4 | F2 F2 A2 G2 | F4 E4 | G2 GG F2 GA | Bc d4 D2 | DEFG A2 B2- | BA G4 F2 | G8 :| %33
w: tel- le pei-|ne au cueur m'a-|mey- ne,|que rien tant soit beau _|_ _ _ ne|_ _ _ _ _ _|* * me _|plaist|
w: ||||||||
V:2
 g2 g2 f2 | _e4 f2 | f4 d2 | d4 z2 | d2 d2 d2 | c2 B2 c2 | d2 e2 d2 |1 d4 z2 ::2[M:2/2] d4 z2 f2 || %9
w: Je ne puis|bon- ne-|ment pen-|ser|d'où me vient|dou- leur si|soub- dai- *|ne?|ne, et|
w: Si ce nest|que ie|voy pas-|ser|mon bien en|re- gi- on|loing- tai- *|||
 d2 f2 c2 c2 | A3 G F2 f2- | f2 f2 d4 | d4 z2 B2 | c4 F4 | B4 A2 d2 |"^b" e2 d4 c2 | d4 z2 d2 | %17
w: l'heu- re qui est|in- * * cer-|* tai- *|ne, du|re- veoir|dont tant me|des- * *|plaist, et|
w: ||||||||
 c2 d2 d4 | d2 c2 f2 e2 | c4 c4 | d2 dd d2 B2- | B2 f3 e dc | B2 A4 d2- | d2 e2 d4 | B4 z2 d2 | %25
w: tel- le pei-|ne au cueur m'a-|mey- ne,|que rien tant soit beau|_ ne _ _ _|_ _ me|_ _ _|plaist, et|
w: ||||||||
 c2 d2 d4 | d2 c2 f2 e2 | c4 c4 | d2 dd d2 B2- | B2 f3 e dc | B2 A4 d2- | d2 e2 d4 |"^#" B8 :| %33
w: tel- le pei-|ne au cueur m'a-|mey- ne,|que rien tant soit beau|_ ne _ _ _|_ _ _|* * me|plaist.|
w: ||||||||
V:3
 d2 d2 d2 | B4 d2 | c4 B2 | A4 z2 | B2 B2 B2 | G3 F G2 | B2 A4 |1 G4 z2 ::2[M:2/2] G4 z2 c2 || %9
w: Je ne puis|bon- ne-|ment pen-|ser|d'où me vient|dou- leur si|soub- dai-|ne?|ne, et|
w: Si ce nest|que ie|voy pas-|ser|mon bien en|re- gi- on|loing- tai-|||
 B2 c2 A2 G2 | FGAB c2 d2- | dcBA B4 | A2 F4 B2- | B2 A2 B4 | z2 d2 dcBA | BAGF G2 G2 | A4 z2 B2 | %17
w: l'heu- re qui est|in- * * * * cer-|* * * * tai-|ne, du re-|* * veoir|dont tant _ _ _|me _ _ _ _ des-|plaist, et|
w: ||||||||
 G2 A2 B4 | A2 A2 F2 G2 | A4 G4 | B2 BB A2 GF | GABc de f2- | fe d3 c BA | B2 c2 A4 | G4 z2 B2 | %25
w: tel- le pei-|ne au cueur m'a-|mey- ne,|que rien tant soit beau _|_ _ _ _ _ _ _||* ne me|plaist, et|
w: ||||||||
 G2 A2 B4 | A2 A2 F2 G2 | A4 G4 | B2 BB A2 GF | GABc de f2- | fe d3 c BA | B2 c2 A4 | G8 :| %33
w: tel- le pei-|ne au cueur m'a-|mey- ne|que rien tant soit beau _|_ _ _ _ _ _ ne-||* * me|plaist.|
w: ||||||||
V:4
 G,2 G,2 D,2 | _E,4 B,,2 | F,4 G,2 | D,4 z2 | B,,2 B,,2 B,,2 | C,2 G,,2 C,2 | B,,2 C,2 D,2 |1 %7
w: Je ne puis|bon- ne-|ment pen-|ser|d'où me vient|dou- leur si|soub- dai- *|
 G,,4 z2 ::2[M:2/2] G,,4 z2 F,2 || G,2 F,2 F,2 C,2 | D,2 F,3 E, D,C, | B,,2 F,2 G,4 | D,4 z2 D,2 | %13
w: ne?|ne et|l'heu- re qui est|in- cer- * * *|* * tai-|ne, du|
 C,4 B,,2 B,,2 | B,,C,D,E, F,2 G,2- | G,F,_E,D, E,4 | D,4 z2 G,2 | E,2 D,2 G,4 | D,2 F,2 D,2 E,2 | %19
w: re- veoir dont|tant _ _ _ _ me|_ _ _ _ des-|plaist, et|tel- e pei-|ne au cueur m'a-|
"^#" F,4 C,4 | G,2 G,G, D,2 _E,2- | E,2 D,C, B,,2 B,,A,, | B,,C,D,E, F,2 G,2- | G,2 C,2 D,4 | %24
w: mey- ne,|que rein tant soit beau|_ _ _ _ _ _||* ne me|
 G,,4 z2 G,2 | E,2 D,2 G,4 | D,2 F,2 D,2 E,2 | F,4 C,4 | G,2 G,G, D,2 _E,2- | %29
w: plaist, et|tel- le pei-|ne au cueur m'a-|mey- ne|que rien tant soit beau|
 E,2 D,C, B,,2 B,,A,, | B,,C,D,E, F,2 G,2- | G,2 C,2 D,4 | G,,8 :| %33
w: _ _ _ _ ne _|_ _ _ _ _ _|* * me|plaist.|

